X: 2
P: Loriks Polska
R: Orsa-polska
O: efter Bengt Jonsson
M: 3/4
L: 1/16
K: GDor
|: D4 (G3^F) G3A | {A}B4 (Bc)(BA) {BA}B3c | {c}d4  {d^c}d2^c2 d3e | {e}f4 (fg)fe c3e | (g2f2) (d3c) TB2A2 ||
|| D4 (G3^F) G3A | {A}B4 (Bc)(BA) {BA}B3c | {c}d4  {d^c}d2^c2 d3e | {e}f4 (fg)fe (3c2e2g2 | ~f4 d8- | d4 d8 :|
[| {A}B3d g4 (~f2ef) | {f}a4 (ga)ge (c4 | c4) (~f2e2) d3c | (TB2A2) (G^F)GB d3e | {e}Tf3e c3d (BcB)A | ((3^F2E2F2) G8- ||
|| G4 g4 (~f2ef) | {f}a4 (ga)ge (c4 | c4) (~f2e2) d3c | (TB2A2) (G^F)GB d3e | {e}Tf3e c3d (BcB)A | ((3^F2E2F2) G8 |]
